X:1
T:Title
%%score { 1 | 2 }
L:1/8
Q:1/4=117
M:9/8
K:Bb
V:1 treble nm="Grand Piano"
V:2 bass 
V:1
 [DF]3 [DF]2 [_D=E] [=DF]3 | [Fd]3 [GB]2 [EG] [DF]3 | [DF]3 [DF]2 [_D=E] [=DF]3 | %3
w: Chas.~P.~Jones * * *|||
 [FB]3 [Fc]2 [Fd] [Fc]3 | [DF]3 [DF]2 [_D=E] [=DF]3 | [Fd]3 [GB]2 [EG] [DF]3 | F3 G2 G F3 | %7
w: ||||
 B3 d2 c .[DB]3 | [DFf]3 [Fd]2 [F_d] .[F=d]3 | [B,FB]3 [B,GB]2 [B,EG] .[B,DF]3 | B3 A2 B c3 | %11
w: ||||
 [Fc]3 [FB]2 [Fd] [Fc]3 | [DFf]3 [Fd]2 [=E_d] .[F=d]3 | [FB]3 [GB]2 [EG] .[DF]3 | B3 A2 B d3 | %15
w: ||||
 [Gc]3 [FB]2 [EA] [DB]3[Q:1/4=115][Q:1/4=114][Q:1/4=112][Q:1/4=110][Q:1/4=108][Q:1/4=107][Q:1/4=105][Q:1/4=103][Q:1/4=102][Q:1/4=100][Q:1/4=98][Q:1/4=96][Q:1/4=95][Q:1/4=93][Q:1/4=91][Q:1/4=89] |] %16
w: |
V:2
 [B,,B,]3 [B,,B,]2 [B,,B,] [B,,B,]3 | [B,,B,]3 [E,B,]2 [E,B,] [B,,B,]3 | %2
 [B,,B,]3 [B,,B,]2 [B,,B,] [B,,B,]3 | [D,B,]3 [C,A,]2 [B,,B,] [F,A,]3 | %4
 [B,,B,]3 [B,,B,]2 [B,,B,] [B,,B,]3 | [B,,B,]3 [E,B,]2 [E,B,] [B,,B,]3 | %6
 [D,B,]3 [E,B,E]2 [E,B,E] [F,B,D]3 | [G,B,D]3 [F,B,F]2 [F,A,E] .[B,,F,B,]3 | %8
 [B,,B,]3 [B,,B,]2 [B,,B,] .[B,,B,]3 | D,3 E,2 E, .A,,3 | [G,B,D]3 [G,B,C]2 [G,B,D] [F,A,E]3 | %11
 [E,A,]3 [D,B,]2 [B,,B,] [F,A,]3 | [B,,B,]3 [B,,B,]2 [B,,B,] .[B,,B,]3 | %13
 [D,B,]3 [E,B,]2 [E,B,] .[B,,B,]3 | [G,B,D]3 [G,B,C]2 [G,B,D] [F,B,F]3 | %15
 [E,E]3 [G,D]2 [F,C] [B,,B,]3 |] %16

